X:1
T:Title
L:1/8
Q:1/4=110
M:6/8
K:G
V:1 treble nm="Church Organ, Staff"
V:1
 DDG A B2 | e d2- d/ z/ c2 | c B2 A G2 | c B2- B/ z/ A2- | A d2 ^d f2 | e d2- d ^c2 | B B2 B_Bd | %7
w: By~H.~W.~Little * * * *|||||||
 ^c c2- c/ z/ B2 | BBF A c2 | e e2- e d2 | BBF A c2 | e e2- e ^d2- | d g2 B e2 | c A2- A/ z/ A2- | %14
w: |||||||
 AGF GBA | E F2- F F2- | F G2- G G2 |] %17
w: |||

